wp-content/plugins/one-click-demo-import/assets/images/icons/plugins.svg

<svg width="65" height="64" viewBox="0 0 65 64" fill="none" xmlns="http://www.w3.org/2000/svg">
<path d="M44 16.375L34.125 26.25L39.875 32L49.75 22.125C50.25 21.625 50.4167 20.9167 50.25 20C50.0833 19 49.5833 18.125 48.75 17.375C48 16.5417 47.1667 16.0417 46.25 15.875C45.4167 15.7083 44.6667 15.875 44 16.375ZM45 1C44.0833 0.416667 38.5833 4.125 28.5 12.125C23.4167 16.125 18.4583 20.2083 13.625 24.375L10.625 22.625C8.375 21.375 6.45833 20.4167 4.875 19.75C2.625 18.75 1.29167 18.4583 0.875 18.875C0.208333 19.375 2.125 22.2083 6.625 27.375C8.875 29.9583 11.2083 32.4583 13.625 34.875L22.25 26.25C28.75 19.75 33.9583 14.375 37.875 10.125C43.2917 4.29167 45.6667 1.25 45 1ZM62.625 30.75C61.7917 29.9167 60.875 29.4167 59.875 29.25C58.9583 29.0833 58.25 29.25 57.75 29.75L47.875 39.625L53.625 45.5L63.5 35.25C64 34.9167 64.1667 34.2917 64 33.375C63.8333 32.375 63.375 31.5 62.625 30.75ZM25.125 27.5C24.125 28.5833 23.25 30.4583 22.5 33.125C21.9167 35.4583 21.625 37.625 21.625 39.625V51.875L17.75 55.625C16.8333 56.625 16.375 57.7917 16.375 59.125C16.375 60.375 16.8333 61.5 17.75 62.5C18.75 63.4167 19.875 63.875 21.125 63.875C22.375 63.875 23.5 63.375 24.5 62.375L28.375 58.5H40.5C42.5833 58.5 44.75 58.2083 47 57.625C49.5 56.9583 51.2917 56.0833 52.375 55L56.125 52.5L27.75 24L25.125 27.5Z" fill="#999999"/>
</svg>

<svg xmlns="http://www.w3.org/2000/svg" width="65" height="64" fill="none"><path fill="#999" d="m44 16.375-9.875 9.875 5.75 5.75 9.875-9.875q.75-.75.5-2.125-.25-1.5-1.5-2.625-1.125-1.25-2.5-1.5-1.25-.25-2.25.5M45 1Q43.624.125 28.5 12.125q-7.625 6-14.875 12.25l-3-1.75Q7.25 20.75 4.875 19.75q-3.375-1.5-4-.875-1 .75 5.75 8.5a149 149 0 0 0 7 7.5l8.625-8.625Q32 16.5 37.875 10.125 46.001 1.375 45 1m17.625 29.75q-1.25-1.25-2.75-1.5-1.375-.25-2.125.5l-9.875 9.875 5.75 5.875L63.5 35.25q.75-.5.5-1.875-.25-1.5-1.375-2.625m-37.5-3.25q-1.5 1.624-2.625 5.625-.875 3.5-.875 6.5v12.25l-3.875 3.75q-1.375 1.5-1.375 3.5 0 1.875 1.375 3.375 1.5 1.375 3.375 1.375t3.375-1.5l3.875-3.875H40.5q3.125 0 6.5-.875 3.75-1 5.375-2.625l3.75-2.5L27.75 24z"/></svg>
